X: 39598
T: Telephone Tune, The
R: reel
M: 4/4
K: Amixolydian
|:e3e efed|cABc A2FA|EAAE AEAB|cABc B2A2|
e3e efed|cABc A2FA|EAAE AEAB|1 cecB A2cd:|2 cecB A2FG||
K: Dmaj
|:~A2FA d2dc|~B2GB e2ed|cAce agec|defd A2FG|
~A2FA d2dc|~B2GB e2ed|cAce agec|1 dfec dAFG:|2 dfec d2cd||

